X:1
T:Walmisley, SM
T:Walmisley, SM
T:Thomas Attwood Walmisley, ca. 1853
T:Public Domain Courtesy of the Cyber Hymnal™
C:Thomas Attwood Walmisley, ca. 1853
Z:Public Domain
Z:Courtesy of the Cyber Hymnal™
%%score ( 1 2 ) ( 3 4 )
L:1/8
Q:1/4=110
M:4/4
K:Bb
V:1 treble 
V:2 treble 
V:3 bass 
V:4 bass 
V:1
 [Gd]2 | [Gc]2 [GB]2 [GA]2 [^FA]2 | G6 B2 | _A2 [EG]2 [EF]2 [DF]2 | E6 [B,G]2 | %5
 [EA]2 [DA]2 [DB]2 [DB]2 | [Gc]2 [Fc]2 [Fd]2 [Gd]2 | c2 [GB]2 [GA]2 [=FA]2 | G6 |] %9
V:2
 x2 | x8 | G6 (GE) | (ED) x6 | E6 x2 | x8 | x8 | (=E^F) x6 | G6 |] %9
V:3
 [G,B,]2 | [E,C]2 [D,D]2 [C,E]2 (DC) | [G,B,]6 [E,G,]2 | [F,_A,]2 B,2 [_A,,C]2 (B,A,) | %4
 [E,G,]6 [E,G,]2 | [C,G,]2 [D,^F,]2 [G,,G,]2 [G,B,]2 | [E,B,]2 [F,A,]2 [B,,B,]2 [G,,B,]2 | %7
 [A,,C]2 [B,,D]2 [C,E]2 (DC) | [G,,=B,]6 |] %9
V:4
 x2 | x6 D,2 | x8 | x2 (G,E,) x B,,2 x | x8 | x8 | x8 | x6 D,2 | x6 |] %9

